X:466
T: Droben auf dem grnen Berg (5-62), S. 102
N: P0736
O: Lothringen
S: MERKELBACH-PINCK, Angelika: Verklingende Weisen, Bd 5, Kassel 1962]
R: ???]
M: 3/4
L: 1/8
K: F
 | F3FF2 | G2F2GG | A4
F2 | F2F2FF | AAA2
FF | AAA2GG | F4
F2 | G4GG | G2F2G2 | A2F2
F2 | A4A2 | G4G2 | F6 |
F2A2A2 | F2AAA2 |
F3FF2 | G2F2GG | A4
F2 | F2F2FF | AAA2
FF | AAA2GG | F4z2

@@@ Tune index: 8016
